X:1
T:Title
%%score 1 { 2 | 3 }
L:1/8
Q:1/4=100
M:4/4
K:Eb
V:1 treble nm="Grand Piano, Soprano"
V:2 treble nm="Grand Piano, Bass"
V:3 bass 
V:1
 [GB]2 [GB][GB] [Ac]2 [GB]2 | [GB]4 [Ge]4 | [EG]3 [EG] [EA]2 [EG]2 | [DF]6 z2 | %4
w: 1.~Since~ I~ have~ found~ my~|Sav ior,~|Bowed~ to~ His~ con|trol;~|
 [EB]2 [EB][EB] [Ec]2 [EB]2 | [EB]4 [Ge]4 | [EG]3 [EA] [EG]2 [DF]2 | E6 [GB]>[GB] | %8
w: There's~ ev er last ing~|mu sic~|Ring ing~ in~ my~|soul.~ * *|
 [Ac]>[Ac] [Ac]>[Ac] [Ac]>[ce] [Bd]>[Ac] | [Ac]>[GB] [GB]>[GB] [GB]2 [GB]>[GB] | %10
w: ||
 [GB]>[FA] [FA]>[FA] [FA]>[Ac] [Ac]>[Ac] | [Ac]>[GB] [GB]>[GB] [GB]2 [GB]>[GB] | %12
w: ||
 [Ac]>[Ac] [Ac]>[Ac] [Ac]>[ce] [Bd]>[Ac] | [Ac]>[GB] [GB]>[GB] [GB]2 [GB]>[GB] | [Ge]6 [EG]>[EG] | %15
w: |||
 [GB]6 [EG]>[B,F] | [B,E]2 E2 [EG]2 [B,F]2 | [B,E]6 z2 |] %18
w: |||
V:2
 E2 EE E2 E2 | E4[K:bass] B,4 | B,3 B, C2 B,2 | B,6 z2 | G,2 G,G, A,2 G,2 | G,4 B,4 | %6
 B,3 C B,2 A,2 | G,6[K:treble] E>E | E>E E>E E>E E>E | E>E E>E E2 E>E | %10
 E>[K:bass]B, B,>B, B,>B,[K:treble] D>D | E>E E>E E2 E>E | E>E E>E E>E E>E | E>E E>E E2 z2 | %14
 z2[K:bass] B,>B, B,2 z2 | z2[K:treble] E>E E2 B,>A, | G,2 =A,2 B,2 _A,2 | G,6 z2 |] %18
V:3
 E,2 E,E, E,2 E,2 | E,4 E,4 | E,3 E, E,2 E,2 | B,,6 z2 | E,2 E,E, E,2 E,2 | E,4 E,4 | %6
 E,3 A,, B,,2 B,,2 | E,6 E,>E, | A,>A, A,>A, A,>A, A,>A, | E,>E, E,>E, E,2 E,>E, | %10
 B,,>B,, B,,>B,, B,,>B,, B,,>B,, | E,>E, E,>E, E,2 E,>E, | A,>A, A,>A, A,>A, A,>A, | %13
 E,>E, E,>E, E,2 z2 | z2 E,>E, E,2 z2 | z2 E,>E, E,2 E,>E, | E,2 C,2 B,,2 B,,2 | E,6 z2 |] %18

